network-strength-4-alert.svg

<svg fill="currentColor" viewBox="0 0 24 24"><path d="M19 17h2v-6h-2m0 10h2v-2h-2M1 21h16V9h4V1"/></svg>

<svg  viewBox="0 0 24 24" fill="currentColor"><path  d="M19 17H21V11H19M19 21H21V19H19M1 21H17V9H21V1"/></svg>
